24x24/actions/kdenlive-select-all.svg

<svg xmlns="http://www.w3.org/2000/svg" width="24" height="24"><path style="fill:currentColor;fill-opacity:1;stroke:none;color:#555e70" d="M3 3v4h1V4h3V3H3zm12 0v1h3v3h1V3h-4zM5 5v5h5V5H5zm7 0v5h5V5h-5zM6 6h3v3H6V6zm7 0h3v3h-3V6zm-8 6v5h5v-5H5zm7 0v5h5v-5h-5zm-6 1h3v3H6v-3zm7 0h3v3h-3v-3zM3 15v4h4v-1H4v-3H3zm15 0v3h-3v1h4v-4h-1z" transform="translate(1 1)"/></svg>

<svg xmlns="http://www.w3.org/2000/svg" viewBox="0 0 24 24" width="24" height="24">
  <defs id="defs3051">
    <style type="text/css" id="current-color-scheme">
      .ColorScheme-Text {
        color:#555e70;
      }
      </style>
  </defs>
  <g transform="translate(1,1)">
    <path style="fill:currentColor;fill-opacity:1;stroke:none" d="M 3 3 L 3 4 L 3 7 L 4 7 L 4 4 L 7 4 L 7 3 L 4 3 L 3 3 z M 15 3 L 15 4 L 18 4 L 18 7 L 19 7 L 19 3 L 15 3 z M 5 5 L 5 10 L 10 10 L 10 5 L 5 5 z M 12 5 L 12 10 L 17 10 L 17 5 L 12 5 z M 6 6 L 9 6 L 9 9 L 6 9 L 6 6 z M 13 6 L 16 6 L 16 9 L 13 9 L 13 6 z M 5 12 L 5 17 L 10 17 L 10 12 L 5 12 z M 12 12 L 12 17 L 17 17 L 17 12 L 12 12 z M 6 13 L 9 13 L 9 16 L 6 16 L 6 13 z M 13 13 L 16 13 L 16 16 L 13 16 L 13 13 z M 3 15 L 3 19 L 4 19 L 7 19 L 7 18 L 4 18 L 4 15 L 3 15 z M 18 15 L 18 18 L 15 18 L 15 19 L 19 19 L 19 18 L 19 15 L 18 15 z " class="ColorScheme-Text"/>
  </g>
</svg>
